!!!COM: Mozart
!!!OTL: Zehn Variationen in G, uber die Ariette 'Unser dummer Pobel meint' aus dem Singspiel 'Die Pilgrime von Mekka'
!!!Variation: Variation 9 a2
**function	**harm	**kern	**kern
*	*	*clefG2	*clefF4
*	*	*k[f#]	*k[f#]
*M2/2	*M2/2	*M2/2	*M2/2
*G:	*G:	*G:	*G:
=171	=171	=171	=171
1T	1I	2GG 2G	([4g
.	.	.	28gLL]
.	.	.	28a
.	.	.	28b
.	.	.	28cc
.	.	.	28dd
.	.	.	56eeL
.	.	.	56ff#
.	.	.	56gg
.	.	.	56aaJJJ
.	.	4r	8bb)
.	.	.	16.r
.	.	.	32g
.	.	4GG 4G	(8.gL
.	.	.	32f#LL
.	.	.	32gJJJ)
=172	=172	=172	=172
1T	1Vb	2FF# 2F#	[4f#
.	.	.	(60f#LLL]
.	.	.	60a
.	.	.	60g
.	.	.	60f#
.	.	.	60g
.	.	.	60a
.	.	.	60b
.	.	.	60cc#
.	.	.	60dd
.	.	.	60ee
.	.	.	60ff#
.	.	.	60gg
.	.	.	60aa
.	.	.	60bb
.	.	.	60ccc#JJJ
.	.	4r	8ddd)
.	.	.	16.r
.	.	.	32f#
.	.	4FF# 4F#	(8.f#L
.	.	.	32eLL
.	.	.	32f#JJJ)
=173	=173	=173	=173
2T	2vi	4EE 4E	(24gLL
.	.	.	24e)
.	.	.	24b'J
.	.	.	(24aL
.	.	.	24g)
.	.	.	24ee'JJ
.	.	4r	(24ddLL
.	.	.	24cc#)
.	.	.	24gg'J
.	.	.	(24ff#L
.	.	.	24ee)
.	.	.	24bb'JJ
2P	2V7/ii	2A 2e 2g	(24aaLL
.	.	.	24gg)
.	.	.	24eee'J
.	.	.	(24dddL
.	.	.	24ccc#
.	.	.	24bbJJ
.	.	.	24aaLL
.	.	.	24gg#
.	.	.	24aaJ
.	.	.	24bb-L
.	.	.	24bb
.	.	.	24ccc#JJ)
=174	=174	=174	=174
1D	1V	([2d 2e 2g	(4.ccc#
.	.	.	16.eeeLL
.	.	.	32dddJJk)
.	.	8d]) 8f#	8dd
.	.	8r	4d
.	.	8D 8F#	.
.	.	8r	[8d
=175	=175	=175	=175
2D	2IVb	2E 2G	32dLLL]
.	.	.	32cn
.	.	.	32e
.	.	.	32dJJ
.	.	.	32fLL
.	.	.	32e
.	.	.	32g
.	.	.	32fJJJ
.	.	.	32aLLL
.	.	.	32g
.	.	.	32b
.	.	.	32aJJ
.	.	.	32ccLL
.	.	.	32b
.	.	.	32dd
.	.	.	32ccJJJ
*	*	*^	*
2D	2Vb	2F#	4A	32eeLLL
.	.	.	.	32dd
.	.	.	.	32ff#
.	.	.	.	32eeJJ
.	.	.	.	32ggLL
.	.	.	.	32ff#
.	.	.	.	32aa
.	.	.	.	32ggJJJ
.	.	.	4d	32bbLLL
.	.	.	.	32aa
.	.	.	.	32ccc
.	.	.	.	32bbJJ
.	.	.	.	32dddLL
.	.	.	.	32ccc
.	.	.	.	32eee
.	.	.	.	32cccJJJ
*	*	*v	*v	*
=176	=176	=176	=176
2D	2I	8d 8G	(24aa#LL
.	.	.	24bb)
.	.	.	24ddd'J
.	.	8r	(24ff#L
.	.	.	24gg)
.	.	.	24bb'JJ
.	.	4r	(24dd#LL
.	.	.	24ee)
.	.	.	24gg'J
.	.	.	(24bL
.	.	.	24cc)
.	.	.	24ee'JJ
2P	2iib	8e 8c	(24g#LL
.	.	.	24a)
.	.	.	24eeJ
.	.	8r	24dd#L
.	.	.	24dd
.	.	.	24cc#JJ
.	.	4r	24ccLL
.	.	.	24b
.	.	.	24aJ
.	.	.	24bL
.	.	.	24cc
.	.	.	24cc#JJ
=177	=177	=177	=177
2.D	2.Cc	[2D [2B	[4dd
.	.	.	(16.ddLL]
.	.	.	32dd#Jk
.	.	.	24eeL
.	.	.	24cc
.	.	.	24aJJ)
.	.	8D] 8B]	8g
.	.	8r	8r
4D	4V	8D 8A	8f#
.	.	8r	8r
=178	=178	=178	=178
1T	1I	(4G	(2c [2d 2f# 2a
.	.	4D)	.
.	.	8GG	8B) 8d] 8g
.	.	8r	8r
.	.	4r	4r
*-	*-	*-	*-
